usr/share/icons/biglinux-icons-material/scalable/mimetypes/application-x-smb-workgroup.svg

<svg width="24" height="24" viewBox="0 0 24 24" fill="none" xmlns="http://www.w3.org/2000/svg">
<rect x="1" y="1" width="22" height="22" rx="6.6" fill="url(#paint0_radial_3_1237)"/>
<path d="M5 5V19H19V5H5ZM5.63636 5.63636H18.3636V7.54545H5.63636V5.63636ZM16.4545 8.81818H18.3636V9.45455H16.4545V8.81818ZM5.63636 11.3636H18.3636V12.6364H5.63636V11.3636ZM16.4545 13.9091H18.3636V14.5455H16.4545V13.9091ZM5.63636 16.4545H18.3636V18.3636H5.63636V16.4545Z" fill="#C1CAE7"/>
<defs>
<radialGradient id="paint0_radial_3_1237" cx="0" cy="0" r="1" gradientUnits="userSpaceOnUse" gradientTransform="translate(17.5 1) rotate(116.565) scale(24.5967)">
<stop stop-color="#7F90BF"/>
<stop offset="1" stop-color="#354C8E"/>
</radialGradient>
</defs>
</svg>

<svg xmlns="http://www.w3.org/2000/svg" width="24" height="24" fill="none"><rect width="22" height="22" x="1" y="1" fill="url(#a)" rx="6.6"/><path fill="#C1CAE7" d="M5 5v14h14V5H5Zm.636.636h12.728v1.91H5.636v-1.91Zm10.819 3.182h1.909v.637h-1.91v-.637ZM5.635 11.364h12.728v1.272H5.636v-1.272Zm10.819 2.545h1.909v.636h-1.91v-.636ZM5.635 16.454h12.728v1.91H5.636v-1.91Z"/><defs><radialGradient id="a" cx="0" cy="0" r="1" gradientTransform="rotate(116.565 8.441 5.908) scale(24.5967)" gradientUnits="userSpaceOnUse"><stop stop-color="#7F90BF"/><stop offset="1" stop-color="#354C8E"/></radialGradient></defs></svg>
